assets/dottrace.svg

<?xml version="1.0" encoding="utf-8"?>
<!-- Generator: Adobe Illustrator 22.1.0, SVG Export Plug-In . SVG Version: 6.00 Build 0)  -->
<svg version="1.1" id="Layer_1" xmlns="http://www.w3.org/2000/svg" xmlns:xlink="http://www.w3.org/1999/xlink" x="0px" y="0px"
	 viewBox="0 0 70 70" style="enable-background:new 0 0 70 70;" xml:space="preserve">
<style type="text/css">
	.st0{fill:#FFFFFF;}
</style>
<g>
	<path d="M13.4,13.4h43.2v43.2H13.4V13.4z"/>
	<path class="st0" d="M17.4,48.5h16.2v2.7H17.4V48.5z"/>
	<g>
		<path class="st0" d="M17.4,19.1h6.9c5.6,0,9.5,3.8,9.5,8.9l0,0c0,5-3.9,8.9-9.5,8.9h-6.9V19.1z M21.4,22.7v10.7h3
			c3.2,0,5.4-2.2,5.4-5.3V28c0-3.2-2.2-5.4-5.4-5.4h-3V22.7z"/>
		<path class="st0" d="M40.3,22.7h-5.4v-3.6h14.7v3.6h-5.4V37h-3.9V22.7z"/>
	</g>
</g>
</svg>

<svg version="1.1" xmlns="http://www.w3.org/2000/svg" x="0" y="0" width="70" height="70" viewBox="0 0 70 70" xml:space="preserve"><linearGradient id="a" gradientUnits="userSpaceOnUse" x1="-1.332" y1="43.737" x2="67.042" y2="26.097"><stop offset=".124" stop-color="#7866FF"/><stop offset=".538" stop-color="#FE2EB6"/><stop offset=".855" stop-color="#FD0486"/></linearGradient><path fill="url(#a)" d="M67.3 16L43.7 0 0 31.1 11.1 70 58.9 60.3z"/><linearGradient id="b" gradientUnits="userSpaceOnUse" x1="45.915" y1="38.91" x2="67.658" y2="9.099"><stop offset=".124" stop-color="#FF0080"/><stop offset=".259" stop-color="#FE0385"/><stop offset=".411" stop-color="#FA0C92"/><stop offset=".571" stop-color="#F41BA9"/><stop offset=".736" stop-color="#EB2FC8"/><stop offset=".866" stop-color="#E343E6"/></linearGradient><path fill="url(#b)" d="M67.3 16L43.7 0 38 15.7 38 47.8 70 47.8z"/><g><path fill="#000" d="M13.4 13.4H56.6V56.6H13.4z"/><path fill="#FFF" d="M17.4 48.5H33.599999999999994V51.2H17.4z"/><g fill="#FFF"><path d="M17.4,19.1h6.9c5.6,0,9.5,3.8,9.5,8.9V28c0,5-3.9,8.9-9.5,8.9h-6.9V19.1z M21.4,22.7v10.7h3 c3.2,0,5.4-2.2,5.4-5.3V28c0-3.2-2.2-5.4-5.4-5.4H21.4z"/><path d="M40.3 22.7L34.9 22.7 34.9 19.1 49.6 19.1 49.6 22.7 44.2 22.7 44.2 37 40.3 37z"/></g></g></svg>
